icon/pk/high-light.svg

<svg width="48" height="48" fill="none" xmlns="http://www.w3.org/2000/svg"><path d="M6 44V25h6v-8h24v8h6v19H6Z" fill="#2F88FF" stroke="#000" stroke-width="4" stroke-linejoin="round"/><path d="M17 17V8l14-4v13" stroke="#000" stroke-width="4" stroke-linecap="round" stroke-linejoin="round"/></svg>

<svg viewBox="0 0 48 48" fill="none" xmlns="http://www.w3.org/2000/svg" height="1em" width="1em">
  <path d="M6 44L6 25H12V17H36V25H42V44H6Z" fill="#2F88FF" stroke="black" stroke-width="4" stroke-linejoin="round"/>
  <path d="M17 17V8L31 4V17" stroke="black" stroke-width="4" stroke-linecap="round" stroke-linejoin="round"/>
</svg>
